app/assets/images/signature.svg

<svg width="194" height="134" viewBox="0 0 194 134" fill="none" xmlns="http://www.w3.org/2000/svg">
<path d="M152.147 60.8115C150.458 62.1886 148.725 63.5481 147.457 65.3311C145.309 68.3501 142.469 70.6408 139.689 72.9908C137.16 75.1278 134.205 76.3792 130.907 76.7858C129.916 76.9081 128.89 77.4424 128.196 76.0755C127.876 75.4441 127.122 75.8241 126.598 76.0692C125.175 76.734 123.769 77.4365 122.385 78.1107C122.007 77.7721 122.155 77.4072 122.152 77.0714C122.138 74.984 121.411 74.5456 119.558 75.5424C118.99 75.8478 118.46 76.2247 117.923 76.5854C116.71 77.4001 115.505 78.2249 113.983 79.2581C114.172 78.5934 114.239 78.375 114.296 78.1541C114.515 77.3006 115.405 76.3555 114.314 75.6125C113.33 74.9427 112.714 76.0101 112.058 76.4819C110.231 77.7965 108.587 79.3757 106.072 80.6315C106.709 79.4946 107.141 78.8134 107.486 78.0911C108.066 76.8768 109.656 75.6098 108.533 74.3289C107.494 73.1446 105.894 74.2503 104.581 74.6413C102.64 75.219 100.973 76.4365 98.7605 77.4121C100.468 73.7646 102.12 70.6081 104.583 67.9376C105.058 67.4231 105.624 66.8056 104.768 66.1593C104.043 65.6128 103.622 66.1849 103.165 66.6833C100.622 69.4595 98.0998 72.2571 95.4903 74.9701C93.6137 76.9213 91.5306 78.6508 89.2894 80.1844C88.3209 80.847 87.8866 80.6513 87.6628 79.4851C87.3509 77.858 86.7842 77.6342 85.3972 78.5507C84.1228 79.3928 82.9208 80.3437 81.6637 81.2132C80.9978 81.674 80.2784 82.5497 79.5336 82.2422C78.6908 81.8941 79.1631 80.7907 79.0883 80.0152C78.9462 78.5412 78.2616 78.1431 76.9877 78.9286C75.9955 79.5395 75.0872 80.2864 74.1416 80.9732C72.8145 81.8175 71.4875 82.6615 70.0386 83.5832C69.8926 82.1128 70.5094 81.0172 71.0702 79.9666C72.1504 77.943 73.3821 76.0016 74.5125 74.0045C75.6114 72.0631 76.9124 70.2034 77.3974 67.9794C77.7111 66.5415 76.9992 65.9467 75.6239 66.4549C74.9132 66.7172 74.2388 67.1017 73.5866 67.4949C70.2974 69.4773 67.2909 71.8305 64.5237 74.4939C62.1284 76.7992 59.7244 79.0958 57.2116 81.5039C58.0327 79.652 58.8777 77.9281 59.5718 76.1448C61.2637 71.7978 63.571 67.7556 65.6253 63.5874C65.9799 62.8679 66.7849 61.9604 66.0157 61.1808C65.1964 60.3502 64.365 61.2845 63.6427 61.6487C60.75 63.1063 57.9879 64.7988 55.3189 66.634C45.0089 73.7243 35.6696 81.9852 26.5896 90.5592C26.1353 90.9883 25.79 91.7608 24.9918 91.5446C28.9605 85.8885 32.9107 80.2512 36.8687 74.6188C42.2161 67.0094 48.2494 59.8928 53.152 51.9646C55.2921 48.5037 57.2346 44.936 58.3544 40.9892C59.9198 35.4728 58.5387 31.2675 54.2931 28.384C52.0782 26.8795 49.6266 26.2329 46.9816 26.1326C42.4404 25.9603 38.2903 27.4238 34.2265 29.1909C32.0185 30.1511 29.826 31.1777 28.0071 32.8277C27.6254 33.1738 27.312 33.6119 27.6396 34.0474C28.0787 34.6312 28.4794 34.0432 28.7989 33.7908C30.9051 32.1267 33.3706 31.1228 35.7842 30.0625C39.3081 28.5141 42.9751 27.4767 46.8933 27.6427C55.1513 27.9932 59.323 34.0603 56.6679 41.8487C55.056 46.576 52.4555 50.7732 49.7368 54.9047C45.2339 61.7473 39.9761 68.0406 35.2982 74.757C28.5691 84.4179 21.9836 94.189 13.9516 102.857C13.5429 103.298 13.0508 103.786 13.5826 104.371C14.1127 104.953 14.6742 104.49 15.1497 104.16C15.4846 103.928 15.7987 103.643 16.0588 103.329C18.5406 100.33 21.2802 97.5773 24.0428 94.8424C34.5602 84.4299 45.5324 74.562 57.9245 66.3921C59.8012 65.1551 61.7238 63.9809 64.1435 62.9823C63.7889 63.7963 63.5927 64.2728 63.3765 64.74C62.1901 67.3028 60.652 69.6826 59.5969 72.3199C57.5412 77.4577 55.238 82.4853 52.5225 87.3144C52.1884 87.9095 51.5464 88.5829 52.4579 89.1223C53.3029 89.6225 53.6724 88.8504 54.0908 88.2649C58.3939 82.2378 63.5381 76.9989 69.1955 72.2576C71.0912 70.6687 73.0833 69.1849 75.7243 68.087C74.8532 70.3474 73.8859 72.0851 72.8364 73.7912C70.6776 77.3018 68.5411 80.8295 67.5334 84.8939C67.3789 85.5173 67.122 86.1546 67.7478 86.6876C68.4281 87.2671 68.9408 86.7967 69.4631 86.4133C71.2628 85.0921 73.0599 83.7672 74.8581 82.4438C75.5378 82.0025 76.2173 81.5615 76.9136 81.1092C78.1719 84.828 79.4212 85.176 82.5764 82.7504C83.368 82.1419 84.1508 81.5209 84.9322 80.8988C85.4647 80.4748 85.8072 80.2893 86.2429 81.136C87.2176 83.0306 88.0981 83.2461 89.8765 82.0416C92.1736 80.486 94.1006 78.4841 96.105 76.581C96.6039 76.1077 97.0901 75.6213 97.5822 75.1407C97.1761 76.7035 96.6039 78.0492 96.0099 79.385C95.7068 80.0667 95.7743 80.6899 96.3916 81.1021C96.9699 81.4882 97.4881 81.1841 97.9714 80.7619C98.7233 80.105 99.4907 79.4604 100.295 78.8693C102.121 77.5263 104.091 76.4761 106.54 75.8129C105.726 77.4731 105.002 78.8126 104.41 80.2083C104.04 81.0784 103.771 82.1592 104.573 82.8622C105.479 83.6554 106.338 82.8465 107.094 82.3284C108.647 81.2647 110.165 80.1512 111.868 78.9364C111.829 79.6 111.78 79.9479 111.795 80.2932C111.822 80.9413 111.828 81.6074 112.561 81.94C113.276 82.2651 113.817 81.8902 114.335 81.4965C114.896 81.0696 115.399 80.5651 115.969 80.1519C117.266 79.2127 118.408 78.026 119.991 77.4331C120.413 80.6315 121.398 81.0728 124.023 79.3542C124.318 79.1609 124.606 78.9544 124.908 78.7726C125.841 78.211 126.73 77.446 127.704 78.8141C128.038 79.2827 128.769 79.2429 129.369 79.1565C134.016 78.489 138.254 76.9371 141.627 73.498C142.314 72.7975 142.989 72.0709 144.104 71.4863C143.893 72.9088 143.704 74.1051 143.541 75.3045C143.394 76.3765 143.485 77.4277 144.005 78.3948C144.249 78.8483 144.674 79.0858 145.191 78.8849C145.674 78.6972 145.623 78.303 145.538 77.8561C144.682 73.3557 146.081 69.5164 149.093 66.2152C150.4 64.7827 151.838 63.4683 153.24 62.1256C153.665 61.7195 154.319 61.3973 153.715 60.7278C153.222 60.1815 152.65 60.4017 152.147 60.8115Z" fill="#333333"/>
<path d="M167.232 72.4915C165.248 74.5533 163.374 76.7598 160.558 77.8433C160.241 75.1476 163.119 71.7132 166.797 70.3241C167.38 70.5958 166.179 71.4522 167.216 71.6551C167.713 71.7525 167.486 72.2277 167.232 72.4915ZM181.24 73.7305C180.898 72.906 180.137 73.4513 179.546 73.6468C179.001 73.8281 178.406 74.1947 177.928 73.5931C177.408 72.9392 177.867 72.3553 178.232 71.8357C179.009 70.7298 179.842 69.6634 180.628 68.564C180.953 68.1088 181.146 67.5489 180.643 67.1345C180.077 66.6683 179.526 66.9272 179.134 67.463C178.475 68.3629 177.844 69.2833 177.207 70.1991C175.342 72.8779 172.714 74.4854 169.668 75.6377C170.015 74.2728 170.623 73.0937 171.086 71.8596C171.412 70.9897 172.354 69.9267 171.299 69.1474C170.188 68.3263 169.867 69.9963 168.872 70.3173C168.533 68.8379 167.82 67.9763 166.243 68.41C163.322 69.2133 159.027 74.2113 158.704 77.1889C158.604 78.1098 158.717 78.9975 159.558 79.5467C160.367 80.0754 161.119 79.6829 161.86 79.2582C164.118 77.9621 166.056 76.2777 167.915 74.0363C167.84 75.4422 167.36 76.6805 168.511 77.3866C169.683 78.1051 170.799 77.4325 171.812 76.8457C172.928 76.1991 173.97 75.4256 175.065 74.741C175.411 74.524 175.774 74.0056 176.237 74.6573C177.333 76.1986 178.713 75.6192 180.037 75.0854C180.634 74.8445 181.625 74.6556 181.24 73.7305Z" fill="#333333"/>
</svg>

<svg width="194" height="134" fill="none" xmlns="http://www.w3.org/2000/svg"><path d="M152.147 60.812c-1.689 1.377-3.422 2.736-4.69 4.52-2.148 3.018-4.988 5.309-7.768 7.659-2.529 2.137-5.484 3.388-8.782 3.795-.991.122-2.017.656-2.711-.71-.32-.632-1.074-.252-1.598-.007-1.423.665-2.829 1.367-4.213 2.042-.378-.339-.23-.704-.233-1.04-.014-2.087-.741-2.525-2.594-1.529-.568.306-1.098.683-1.635 1.043-1.213.815-2.418 1.64-3.94 2.673.189-.665.256-.883.313-1.104.219-.853 1.109-1.798.018-2.541-.984-.67-1.6.397-2.256.869-1.827 1.314-3.471 2.894-5.986 4.15.637-1.137 1.069-1.819 1.414-2.54.58-1.215 2.17-2.482 1.047-3.763-1.039-1.184-2.639-.079-3.952.312-1.941.578-3.608 1.795-5.82 2.771 1.707-3.647 3.359-6.804 5.822-9.474.475-.515 1.041-1.132.185-1.779-.725-.546-1.146.026-1.603.524-2.543 2.776-5.065 5.574-7.675 8.287-1.876 1.951-3.96 3.68-6.2 5.214-.97.663-1.403.467-1.627-.699-.312-1.627-.879-1.85-2.266-.934-1.274.842-2.476 1.793-3.733 2.662-.666.461-1.386 1.337-2.13 1.03-.843-.349-.37-1.452-.446-2.228-.142-1.474-.826-1.872-2.1-1.086-.992.61-1.9 1.357-2.846 2.044l-4.103 2.61c-.146-1.47.47-2.566 1.031-3.616 1.08-2.024 2.312-3.965 3.443-5.963 1.098-1.94 2.4-3.8 2.884-6.025.314-1.438-.398-2.032-1.773-1.524-.71.262-1.385.647-2.037 1.04-3.29 1.982-6.296 4.335-9.063 6.999-2.396 2.305-4.8 4.602-7.312 7.01.82-1.852 1.666-3.576 2.36-5.36 1.692-4.346 3.999-8.388 6.053-12.557.355-.72 1.16-1.627.39-2.406-.819-.83-1.65.104-2.372.468-2.893 1.457-5.655 3.15-8.324 4.985-10.31 7.09-19.65 15.351-28.73 23.925-.454.43-.799 1.202-1.597.986 3.968-5.657 7.919-11.294 11.877-16.926 5.347-7.61 11.38-14.726 16.283-22.654 2.14-3.461 4.083-7.029 5.202-10.976 1.566-5.516.185-9.721-4.06-12.605-2.216-1.505-4.667-2.151-7.312-2.251-4.542-.173-8.692 1.29-12.755 3.058-2.208.96-4.401 1.987-6.22 3.637-.382.346-.695.784-.367 1.22.439.583.84-.005 1.159-.257 2.106-1.664 4.572-2.668 6.985-3.728 3.524-1.549 7.191-2.586 11.11-2.42 8.257.35 12.429 6.417 9.774 14.206-1.612 4.727-4.212 8.924-6.931 13.056-4.503 6.842-9.76 13.136-14.439 19.852-6.729 9.66-13.314 19.432-21.346 28.1-.41.441-.901.929-.37 1.514.53.582 1.092.119 1.568-.211a4.57 4.57 0 00.909-.831c2.482-2.999 5.221-5.752 7.984-8.487 10.517-10.412 21.49-20.28 33.882-28.45 1.876-1.237 3.799-2.411 6.219-3.41-.355.814-.551 1.29-.768 1.758-1.186 2.563-2.724 4.943-3.78 7.58-2.055 5.138-4.358 10.165-7.073 14.994-.335.596-.977 1.269-.065 1.808.845.5 1.214-.272 1.633-.857 4.303-6.027 9.447-11.266 15.104-16.007 1.896-1.59 3.888-3.073 6.53-4.171-.872 2.26-1.84 3.998-2.889 5.704-2.158 3.51-4.295 7.038-5.303 11.103-.154.623-.411 1.26.215 1.794.68.58 1.193.109 1.715-.275 1.8-1.32 3.597-2.646 5.395-3.97.68-.44 1.36-.882 2.056-1.334 1.258 3.719 2.507 4.067 5.662 1.641.792-.608 1.575-1.23 2.356-1.851.533-.424.875-.61 1.31.237.976 1.895 1.856 2.11 3.634.906 2.298-1.556 4.225-3.558 6.229-5.461.499-.473.985-.96 1.477-1.44-.406 1.563-.978 2.908-1.572 4.244-.303.682-.236 1.305.382 1.717.578.386 1.096.082 1.58-.34a35.608 35.608 0 012.323-1.893c1.826-1.343 3.796-2.393 6.245-3.056-.814 1.66-1.538 3-2.13 4.395-.37.87-.639 1.951.163 2.654.906.793 1.765-.015 2.521-.534 1.553-1.063 3.071-2.177 4.774-3.392-.039.664-.088 1.012-.073 1.357.027.648.033 1.314.766 1.647.715.325 1.256-.05 1.774-.444.561-.426 1.064-.93 1.634-1.344 1.297-.94 2.439-2.126 4.022-2.719.422 3.198 1.407 3.64 4.032 1.921.295-.193.583-.4.885-.581.933-.562 1.822-1.327 2.796.041.334.469 1.065.429 1.665.343 4.647-.668 8.885-2.22 12.258-5.659.687-.7 1.362-1.427 2.477-2.012-.211 1.423-.4 2.62-.563 3.819-.147 1.071-.056 2.123.464 3.09.244.453.669.69 1.186.49.483-.188.432-.582.347-1.029-.856-4.5.543-8.34 3.555-11.64 1.307-1.433 2.745-2.748 4.147-4.09.425-.407 1.079-.729.475-1.398-.493-.547-1.065-.326-1.568.084zm15.085 11.68c-1.984 2.061-3.858 4.268-6.674 5.351-.317-2.695 2.561-6.13 6.239-7.519.583.272-.618 1.128.419 1.331.497.097.27.573.016.837zm14.008 1.239c-.342-.825-1.103-.28-1.694-.084-.545.181-1.14.548-1.618-.054-.52-.654-.061-1.238.304-1.757.777-1.106 1.61-2.173 2.396-3.272.325-.455.518-1.015.015-1.43-.566-.466-1.117-.207-1.509.329-.659.9-1.29 1.82-1.927 2.736-1.865 2.679-4.493 4.286-7.539 5.439.347-1.365.955-2.544 1.418-3.778.326-.87 1.268-1.933.213-2.713-1.111-.82-1.432.85-2.427 1.17-.339-1.48-1.052-2.34-2.629-1.907-2.921.803-7.216 5.801-7.539 8.779-.1.92.013 1.809.854 2.358.809.528 1.561.136 2.302-.289 2.258-1.296 4.196-2.98 6.055-5.222-.075 1.406-.555 2.644.596 3.35 1.172.72 2.288.047 3.301-.54 1.116-.647 2.158-1.42 3.253-2.105.346-.217.709-.735 1.172-.084 1.096 1.542 2.476.962 3.8.428.597-.24 1.588-.43 1.203-1.354z" fill="#333"/></svg>
